images/logo-icon-dark.svg

<svg height="75" viewBox="0 0 78 75" width="78" xmlns="http://www.w3.org/2000/svg"><path d="m23.5742168 60.955694c1.5771036-3.0862122 4.7865419-5.1990337 8.4892831-5.1990337 5.262292 0 9.5282225 4.2674256 9.5282225 9.5315617 0 5.2641362-4.2659305 9.5315618-9.5282225 9.5315618-3.7027412 0-6.9121795-2.1128215-8.4892831-5.1990337h-8.8347577c-8.13263309 0-14.72543479-6.5951122-14.72543479-14.7305954s6.5928017-14.7305954 14.72543479-14.7305954h20.7582159l-3.5055762-5.1990337h-17.2526397c-8.13263309 0-14.72543479-6.5951122-14.72543479-14.7305954 0-8.1354831 6.5928017-14.73059535 14.72543479-14.73059535 4.7155931 0 8.662299 1.82137973 11.5238372 5.56122335.1866331.2439174.903725 1.2845631 2.5931092 3.7540648l7.7408874 11.4808465h26.6494806c3.3487313 0 6.0634144-2.7156344 6.0634144-6.0655393 0-3.3499048-2.7146831-6.0655392-6.0634144-6.0655392h-8.8347577c-1.5771036 3.0862121-4.7865418 5.1990336-8.4892831 5.1990336-5.262292 0-9.5282225-4.2674255-9.5282225-9.53156169s4.2659305-9.53156173 9.5282225-9.53156173c3.7027413 0 6.9121795 2.11282151 8.4892831 5.19903367h8.8347577c8.1326331 0 14.7254348 6.59511225 14.7254348 14.73059535 0 8.1354832-6.5928017 14.7305954-14.7254348 14.7305954h-20.807122l3.5054152 5.1990337h17.3017068c8.1326331 0 14.7254348 6.5951122 14.7254348 14.7305954s-6.5928017 14.7305954-14.7254348 14.7305954c-4.5017469 0-8.6780764-2.0390455-11.6197725-5.6913217l-2.14253-3.026397-8.1441689-12.078416h-26.600843c-3.3487313 0-6.06341435 2.7156345-6.06341435 6.0655393s2.71468305 6.0655393 6.06341435 6.0655393zm33.0344752-4.9804486 1.9194061 2.7245712c1.1480037 1.4198785 2.8602788 2.2558774 4.7186754 2.2558774 3.3487313 0 6.0634144-2.7156345 6.0634144-6.0655393s-2.7146831-6.0655393-6.0634144-6.0655393h-11.4593481zm-34.9169674-36.2909507c-1.3624245-1.9914187-2.2731584-3.3130783-2.3068102-3.3570589-1.1682567-1.5268352-2.5464113-2.1628448-4.6454553-2.1628448-3.3487313 0-6.06341435 2.7156344-6.06341435 6.0655392 0 3.3499049 2.71468305 6.0655393 6.06341435 6.0655393h11.4100126z" fill="#1e2347"/></svg>

<?xml version="1.0" encoding="UTF-8"?>
<svg width="78px" height="75px" viewBox="0 0 78 75" version="1.1" xmlns="http://www.w3.org/2000/svg" xmlns:xlink="http://www.w3.org/1999/xlink">
    <!-- Generator: Sketch 52.6 (67491) - http://www.bohemiancoding.com/sketch -->
    <title>Fission Icon</title>
    <desc>Created with Sketch.</desc>
    <g id="Page-1" stroke="none" stroke-width="1" fill="none" fill-rule="evenodd">
        <g id="Logos-Source" transform="translate(-368.000000, -498.000000)" fill="rgb(30, 35, 71)" fill-rule="nonzero">
            <g id="Alternates" transform="translate(64.000000, 442.000000)">
                <g id="Black-and-White" transform="translate(304.000000, 56.000000)">
                    <path d="M23.5742168,60.955694 C25.1513204,57.8694818 28.3607587,55.7566603 32.0634999,55.7566603 C37.3257919,55.7566603 41.5917224,60.0240859 41.5917224,65.288222 C41.5917224,70.5523582 37.3257919,74.8197838 32.0634999,74.8197838 C28.3607587,74.8197838 25.1513204,72.7069623 23.5742168,69.6207501 L14.7394591,69.6207501 C6.60682601,69.6207501 0.0140243096,63.0256379 0.0140243096,54.8901547 C0.0140243096,46.7546715 6.60682601,40.1595593 14.7394591,40.1595593 L35.497675,40.1595593 L31.9920988,34.9605256 L14.7394591,34.9605256 C6.60682601,34.9605256 0.0140243096,28.3654134 0.0140243096,20.2299302 C0.0140243096,12.0944471 6.60682601,5.49933485 14.7394591,5.49933485 C19.4550522,5.49933485 23.4017581,7.32071458 26.2632963,11.0605582 C26.4499294,11.3044756 27.1670213,12.3451213 28.8564055,14.814623 L36.5972929,26.2954695 L63.2467735,26.2954695 C66.5955048,26.2954695 69.3101879,23.5798351 69.3101879,20.2299302 C69.3101879,16.8800254 66.5955048,14.164391 63.2467735,14.164391 L54.4120158,14.164391 C52.8349122,17.2506031 49.625474,19.3634246 45.9227327,19.3634246 C40.6604407,19.3634246 36.3945102,15.0959991 36.3945102,9.83186291 C36.3945102,4.56772672 40.6604407,0.300301181 45.9227327,0.300301181 C49.625474,0.300301181 52.8349122,2.41312269 54.4120158,5.49933485 L63.2467735,5.49933485 C71.3794066,5.49933485 77.9722083,12.0944471 77.9722083,20.2299302 C77.9722083,28.3654134 71.3794066,34.9605256 63.2467735,34.9605256 L42.4396515,34.9605256 L45.9450667,40.1595593 L63.2467735,40.1595593 C71.3794066,40.1595593 77.9722083,46.7546715 77.9722083,54.8901547 C77.9722083,63.0256379 71.3794066,69.6207501 63.2467735,69.6207501 C58.7450266,69.6207501 54.5686971,67.5817046 51.627001,63.9294284 L49.484471,60.9030314 L41.3403021,48.8246154 L14.7394591,48.8246154 C11.3907278,48.8246154 8.67604475,51.5402499 8.67604475,54.8901547 C8.67604475,58.2400595 11.3907278,60.955694 14.7394591,60.955694 L23.5742168,60.955694 Z M56.608692,55.9752454 L58.5280981,58.6998166 C59.6761018,60.1196951 61.3883769,60.955694 63.2467735,60.955694 C66.5955048,60.955694 69.3101879,58.2400595 69.3101879,54.8901547 C69.3101879,51.5402499 66.5955048,48.8246154 63.2467735,48.8246154 L51.7874254,48.8246154 L56.608692,55.9752454 Z M21.6917246,19.6842947 C20.3293001,17.692876 19.4185662,16.3712164 19.3849144,16.3272358 C18.2166577,14.8004006 16.8385031,14.164391 14.7394591,14.164391 C11.3907278,14.164391 8.67604475,16.8800254 8.67604475,20.2299302 C8.67604475,23.5798351 11.3907278,26.2954695 14.7394591,26.2954695 L26.1494717,26.2954695 L21.6917246,19.6842947 Z" id="Fission-Icon"></path>
                </g>
            </g>
        </g>
    </g>
</svg>
